img/icons/stick.svg

<svg width="86" height="117" viewBox="0 0 86 117" fill="none" xmlns="http://www.w3.org/2000/svg"><g clip-path="url(#clip0)"><path d="M82.821 4.01099H3.32997C1.56897 4.01099.141968 5.43799.141968 7.19899V53.612C.141968 55.375 1.56897 56.801 3.32997 56.801H82.822C84.584 56.801 86.011 55.374 86.011 53.612V7.19899C86.011 5.43799 84.583 4.01099 82.821 4.01099zM8.39197 37.236H8.16597C6.40397 37.236 4.97697 35.807 4.97697 34.047V26.764C4.97697 25.003 6.40397 23.576 8.16597 23.576H8.39197V37.236zM69.623 52.408H13.341V8.40199H69.623V52.408zM78.4 34.552C76.111 34.552 74.254 32.697 74.254 30.405 74.254 28.113 76.11 26.258 78.4 26.258 80.691 26.258 82.548 28.113 82.548 30.405 82.548 32.697 80.691 34.552 78.4 34.552z" fill="#363636"/><path d="M54.6539.0H31.4969V2.758h23.157V0z" fill="#363636"/><path d="M46.6079 64.861V61.888h8.046V59.13H31.4979V61.888H39.5429V97.134C37.4039 98.072 35.9079 100.206 35.9079 102.693V117h14.335V102.693C50.2429 100.207 48.7479 98.072 46.6069 97.136V69.146H51.4029L56.4539 70.359V63.648L51.4029 64.861H46.6079z" fill="#363636"/></g><defs><clipPath id="clip0"><path d="M0 0h86v117H0z" fill="#fff"/></clipPath></defs></svg>

<svg width="86" height="117" fill="none" xmlns="http://www.w3.org/2000/svg"><path d="M82.82 4.01H3.33A3.19 3.19 0 00.14 7.2V53.6a3.19 3.19 0 003.19 3.2h79.5A3.19 3.19 0 0086 53.6V7.2A3.19 3.19 0 0082.82 4zM8.4 37.24h-.22a3.19 3.19 0 01-3.2-3.2v-7.28a3.19 3.19 0 013.2-3.18h.22v13.66zM69.62 52.4H13.34v-44h56.28v44zm8.78-17.86a4.15 4.15 0 110-8.29 4.15 4.15 0 010 8.3zM54.65 0H31.5v2.76h23.15V0zM46.6 64.86V61.9h8.05v-2.76H31.5v2.76h8.04v35.24a6.07 6.07 0 00-3.63 5.56V117h14.33v-14.3c0-2.5-1.5-4.63-3.63-5.56v-28h4.8l5.04 1.22v-6.71l-5.05 1.21h-4.8z" fill="#363636"/><!-- Code injected by live-server -->
</svg>
